Hatter-kde/actions/16/document-edit-decrypt-verify.svg

<?xml version="1.0" encoding="UTF-8"?>
<svg viewBox="0 0 16 16" xmlns="http://www.w3.org/2000/svg">
 <defs id="defs3051">
  <style id="current-color-scheme" type="text/css">.ColorScheme-Text {
        color:#363636;
      }</style>
 </defs>
 <path class="ColorScheme-Text" d="m3 2v2h2v-2h-2zm2 2v2h2v-2h-2zm2 0h2v-2h-2v2zm2 0v2h2v-2h-2zm2 0h2v-2h-2v2zm-2 2c-1.662 0-3 1.338-3 3s1.338 3 3 3c0.64939 0 1.26-0.2145 1.75-0.5625l2.5312 2.5625 0.71875-0.71875-2.5625-2.5312c0.34805-0.4899 0.5625-1.1006 0.5625-1.75 0-1.662-1.338-3-3-3zm-6 0v7 1h6v-1h-5v-7h-1zm6 1c1.108 0 2 0.892 2 2s-0.892 2-2 2-2-0.892-2-2 0.892-2 2-2z" fill="currentColor"/>
</svg>

<svg xmlns="http://www.w3.org/2000/svg" viewBox="0 0 16 16">
  <defs id="defs3051">
    <style type="text/css" id="current-color-scheme">
      .ColorScheme-Text {
        color:#363636;
      }
      </style>
  </defs>
 <path style="fill:currentColor;fill-opacity:1;stroke:none" 
     d="M 3 2 L 3 4 L 5 4 L 5 2 L 3 2 z M 5 4 L 5 6 L 7 6 L 7 4 L 5 4 z M 7 4 L 9 4 L 9 2 L 7 2 L 7 4 z M 9 4 L 9 6 L 11 6 L 11 4 L 9 4 z M 11 4 L 13 4 L 13 2 L 11 2 L 11 4 z M 9 6 C 7.338 6 6 7.338 6 9 C 6 10.662 7.338 12 9 12 C 9.64939 12 10.26003 11.7855 10.75 11.4375 L 13.28125 14 L 14 13.28125 L 11.4375 10.75 C 11.78555 10.2601 12 9.6494 12 9 C 12 7.338 10.662 6 9 6 z M 3 6 L 3 13 L 3 14 L 9 14 L 9 13 L 4 13 L 4 6 L 3 6 z M 9 7 C 10.108 7 11 7.892 11 9 C 11 10.108 10.108 11 9 11 C 7.892 11 7 10.108 7 9 C 7 7.892 7.892 7 9 7 z "
     class="ColorScheme-Text"
     />
</svg>
